app/public/dtpr-icons/spatial.svg

<svg width="36" height="36" viewBox="0 0 36 36" fill="none" xmlns="http://www.w3.org/2000/svg">
<path fill-rule="evenodd" clip-rule="evenodd" d="M18.8613 24.4617V21.4452C18.8613 20.9699 18.4759 20.5834 18.0005 20.5834C17.5251 20.5834 17.1386 20.9699 17.1386 21.4452V24.4617L11.9727 21.4793V15.5145L17.5696 18.746C17.7029 18.8224 17.8517 18.8617 18.0005 18.8617C18.1493 18.8617 18.2981 18.8224 18.4304 18.746L24.0273 15.5145V21.4793L18.8613 24.4617ZM17.5696 9.30069L14.2358 11.2249C13.8235 11.4626 13.683 11.9896 13.9206 12.4019C14.0798 12.6778 14.3691 12.8329 14.6668 12.8329C14.8135 12.8329 14.9613 12.7946 15.0966 12.7171L18.0005 11.0409L23.1665 14.0223L18.0005 17.0057L11.5531 13.2834C11.4942 13.2472 11.4312 13.2193 11.364 13.1987C11.363 13.1987 11.3619 13.1987 11.3619 13.1987C11.3557 13.1966 11.3495 13.1945 11.3444 13.1935C11.3413 13.1925 11.3382 13.1914 11.3351 13.1914C11.332 13.1904 11.3289 13.1894 11.3258 13.1883C11.3196 13.1863 11.3144 13.1852 11.3092 13.1842C11.3082 13.1842 11.3072 13.1832 11.3051 13.1832C11.2193 13.1635 11.1325 13.1573 11.0468 13.1635C11.0457 13.1635 11.0447 13.1646 11.0437 13.1646C11.0385 13.1646 11.0323 13.1656 11.0271 13.1656C11.024 13.1656 11.0199 13.1666 11.0157 13.1666C11.0137 13.1677 11.0106 13.1677 11.0085 13.1677C10.8969 13.1811 10.7915 13.2162 10.6975 13.2669C10.6975 13.2679 10.6964 13.2679 10.6954 13.269C10.6902 13.271 10.6861 13.2741 10.6809 13.2772C10.6768 13.2793 10.6727 13.2824 10.6675 13.2855L10.6644 13.2865C10.5724 13.3423 10.4908 13.4157 10.4226 13.5056C10.4215 13.5077 10.4205 13.5097 10.4195 13.5118C10.4164 13.5149 10.4143 13.518 10.4122 13.5211C10.4091 13.5252 10.405 13.5304 10.4019 13.5345C10.4019 13.5356 10.4009 13.5356 10.4009 13.5366C10.3523 13.6079 10.3141 13.6864 10.2882 13.7712C10.2882 13.7722 10.2882 13.7733 10.2872 13.7733C10.2862 13.7795 10.2841 13.7846 10.282 13.7898C10.282 13.7939 10.281 13.797 10.28 13.8001C10.2789 13.8032 10.2779 13.8063 10.2769 13.8094C10.2758 13.8146 10.2748 13.8208 10.2727 13.826C10.2727 13.827 10.2727 13.828 10.2727 13.8291C10.2572 13.8973 10.25 13.9655 10.25 14.0347V21.9764C10.25 22.2843 10.4153 22.5685 10.6809 22.7225L17.5696 26.7001C17.7029 26.7765 17.8517 26.8148 18.0005 26.8148C18.1493 26.8148 18.2981 26.7765 18.4304 26.7001L25.3201 22.7225C25.5857 22.5685 25.75 22.2843 25.75 21.9764V14.0347C25.751 13.9024 25.7231 13.7691 25.6621 13.6441C25.6611 13.642 25.6601 13.6399 25.6601 13.6389C25.657 13.6327 25.6539 13.6265 25.6497 13.6203L25.6466 13.6141C25.6425 13.6079 25.6384 13.6007 25.6342 13.5924C25.6342 13.5924 25.6342 13.5914 25.6332 13.5914L25.6218 13.5697C25.6208 13.5676 25.6187 13.5666 25.6177 13.5645C25.6146 13.5583 25.6105 13.5531 25.6063 13.5469L25.6032 13.5428C25.5268 13.4271 25.4245 13.3351 25.3097 13.271L18.4304 9.30069C18.1648 9.14672 17.8362 9.14672 17.5696 9.30069Z" fill="black"/>
<rect x="2" y="2" width="32" height="32" rx="16" stroke="black" stroke-width="2"/>
</svg>

<svg xmlns="http://www.w3.org/2000/svg" width="36" height="36" fill="none"><path fill="#000" fill-rule="evenodd" d="M18.861 24.462v-3.017a.862.862 0 1 0-1.722 0v3.017l-5.166-2.983v-5.964l5.597 3.231a.87.87 0 0 0 .86 0l5.597-3.231v5.964zM17.57 9.3l-3.334 1.924a.862.862 0 0 0 .86 1.492L18 11.041l5.166 2.981L18 17.006l-6.447-3.723a.8.8 0 0 0-.189-.084h-.002q-.009-.004-.018-.005l-.009-.003-.01-.003-.016-.004h-.004q-.129-.03-.258-.02h-.003l-.017.002h-.011q-.003.003-.008.002a.9.9 0 0 0-.31.099q0 0-.003.002l-.014.008-.013.009h-.004a.9.9 0 0 0-.245.226l-.007.01-.01.012-.001.003a.9.9 0 0 0-.113.234v.002l-.006.017-.002.01-.003.01-.004.016v.003a1 1 0 0 0-.023.206v7.941c0 .308.165.593.43.747l6.89 3.977a.87.87 0 0 0 .86 0l6.89-3.977a.86.86 0 0 0 .43-.747v-7.941a.9.9 0 0 0-.088-.39l-.002-.006-.01-.019-.003-.006-.013-.022-.012-.022-.004-.005q-.005-.01-.012-.018l-.003-.004a.85.85 0 0 0-.293-.272l-6.88-3.97a.86.86 0 0 0-.86 0" clip-rule="evenodd"/><rect width="32" height="32" x="2" y="2" stroke="#000" stroke-width="2" rx="16"/></svg>
